X:1
T:Morning Song, 86.86.86
T:Morning Song, 86.86.86
T:Kentucky Harmony, 1816 (harm. by C. W. Douglas)
T:Public Domain Courtesy of the Cyber Hymnal™
C:Kentucky Harmony, 1816 (harm. by C. W. Douglas)
Z:Public Domain
Z:Courtesy of the Cyber Hymnal™
%%score ( 1 2 ) ( 3 4 )
L:1/8
Q:1/4=107
M:4/4
K:Ab
V:1 treble 
V:2 treble 
V:3 bass 
V:4 bass 
V:1
 C2 | [CF]2 G2 [CA]2 BA | [EG]2 FE C2 C2 | [DF]2 [EG]2 [EA]2 B2 | [Ac]6 AB | [Ec]2 dc [GB]2 [EA]2 | %6
 [DG]2 FE C2 C2 | F2 [EG]2 AF [EG]2 | [CF]6 AB | [Ec]2 dc [GB]2 [FA]2 | [EG]2 FE C2 C2 | %11
 [CF]2 [EG]2 [CA][DF] [EG]2 | [CF]6 |] %13
V:2
 C2 | x2 ED x F2 x | x2 C2 C2 C2 | x6 FG | x6 E2 | x2 F2 x4 | x2 D2 C2 C2 | DC x D2 x3 | x6 F2 | %9
 x2 F2 x4 | x2 C2 C2 C2 | x8 | x6 |] %13
V:3
 [C,G,]2 | [F,A,]2 [E,B,]2 A,2 DC | [E,B,]2 A,2 [G,B,]2 A,2 | [D,A,]2 [D,B,]2 [C,C]2 [B,,D]2 | %4
 [A,,E]6 [A,C]2 | A,2 [D,A,]2 [E,G,]2 [C,A,]2 | [B,,B,]2 F,G, [A,,A,]2 A,2 | %7
 A,2 B,2 [B,,B,]2 [E,B,]2 | [F,A,]6 [D,F,]2 | [C,G,]2 [B,,A,]2 [E,G,]2 DC | %10
 [G,B,]2 A,2 [E,G,]2 G,2 | [A,,A,]2 [C,G,]2 F,A, [E,B,]2 | (B,4 A,2) |] %13
V:4
 x2 | x4 A,2 D,2 | x2 A,2 F,E, x2 | x8 | x8 | A,2 x6 | x2 B,,2 x A,G, x | F,E, D,C, x4 | x8 | %9
 x6 F,2 | x2 A,2 C,B,, x2 | x4 F,2 x2 | F,6 |] %13

